app/client/src/assets/icons/blueprintjs/16px/array.svg

<?xml version="1.0" encoding="UTF-8"?>
<svg width="16px" height="16px" viewBox="0 0 16 16" version="1.1" xmlns="http://www.w3.org/2000/svg" xmlns:xlink="http://www.w3.org/1999/xlink">
    <title>icon-array</title>
    <g stroke-width="1" fill-rule="evenodd">
        <path d="M15,0 C15.5128358,0 15.9355072,0.38604019 15.9932723,0.883378875 L16,1 L16,15 C16,15.5128358 15.6139598,15.9355072 15.1166211,15.9932723 L15,16 L12,16 C11.4477153,16 11,15.5522847 11,15 C11,14.4871642 11.3860402,14.0644928 11.8833789,14.0067277 L12,14 L14,14 L14,2 L12,2 C11.4871642,2 11.0644928,1.61395981 11.0067277,1.11662113 L11,1 C11,0.487164161 11.3860402,0.0644928393 11.8833789,0.00672773133 L12,0 L15,0 Z M4,0 C4.55228475,0 5,0.44771525 5,1 C5,1.51283584 4.61395981,1.93550716 4.11662113,1.99327227 L4,2 L2,2 L2,14 L4,14 C4.51283584,14 4.93550716,14.3860402 4.99327227,14.8833789 L5,15 C5,15.5128358 4.61395981,15.9355072 4.11662113,15.9932723 L4,16 L1,16 C0.487164161,16 0.0644928393,15.6139598 0.00672773133,15.1166211 L0,15 L0,1 C0,0.487164161 0.38604019,0.0644928393 0.883378875,0.00672773133 L1,0 L4,0 Z M8,7 C8.55228475,7 9,7.44771525 9,8 C9,8.55228475 8.55228475,9 8,9 C7.44771525,9 7,8.55228475 7,8 C7,7.44771525 7.44771525,7 8,7 Z M5,7 C5.55228475,7 6,7.44771525 6,8 C6,8.55228475 5.55228475,9 5,9 C4.44771525,9 4,8.55228475 4,8 C4,7.44771525 4.44771525,7 5,7 Z M11,7 C11.5522847,7 12,7.44771525 12,8 C12,8.55228475 11.5522847,9 11,9 C10.4477153,9 10,8.55228475 10,8 C10,7.44771525 10.4477153,7 11,7 Z"></path>
    </g>
</svg>

<svg xmlns="http://www.w3.org/2000/svg" width="16" height="16"><path fill-rule="evenodd" d="M15 0a1 1 0 0 1 .993.883L16 1v14a1 1 0 0 1-.883.993L15 16h-3a1 1 0 0 1-.117-1.993L12 14h2V2h-2a1 1 0 0 1-.993-.883L11 1a1 1 0 0 1 .883-.993L12 0h3ZM4 0a1 1 0 0 1 .117 1.993L4 2H2v12h2a1 1 0 0 1 .993.883L5 15a1 1 0 0 1-.883.993L4 16H1a1 1 0 0 1-.993-.883L0 15V1A1 1 0 0 1 .883.007L1 0h3Zm4 7a1 1 0 1 1 0 2 1 1 0 0 1 0-2ZM5 7a1 1 0 1 1 0 2 1 1 0 0 1 0-2Zm6 0a1 1 0 1 1 0 2 1 1 0 0 1 0-2Z"/></svg>
